!!!COM: Music21
!!!OTL: reel_Legless-In-Lisburn
!!!OMV: reel_Legless-In-Lisburn
**kern
*clefG2
*k[f#c#g#]
*A:
*M4/4
=1
4ee
=
8bL
8cc#J
8cc#L
8cc#J
8bL
8aJ
8aL
8aJ
=
8eeL
8cc#J
8cc#L
8cc#J
4ff#
8eeL
8ff#J
=
8eeL
8cc#J
8cc#L
8cc#J
8aaL
8cc#J
8eeL
8cc#J
=
8aL
8cc#J
8eeL
8cc#J
4b
4aa
=
8bL
8cc#J
8cc#L
8cc#J
8bL
8aJ
8aL
8aJ
!!linebreak:original
=
8eeL
8cc#J
8cc#L
8cc#J
4ff#
8eeL
8ff#J
=
8eeL
8aaJ
8aaL
8eeJ
8ff#L
8aaJ
8eeL
8cc#J
=
8bL
8eeJ
8eeL
8g#J
4a
4ryy
=||
8eeL
8ddJ
2.ryy
=
8bL
8cc#J
8cc#L
8cc#J
8aaL
8bJ
8cc#L
8eeJ
=
8cc#L
8ddJ
8ddL
8ddJ
8ff#L
8aaJ
8ff#L
8ddJ
!!linebreak:original
=
8eeL
8cc#J
8cc#L
8cc#J
8aaL
8cc#J
8eeL
8cc#J
=
8aL
8cc#J
8eeL
8cc#J
8bL
8aaJ
8gg#L
8aaJ
=
8bL
8cc#J
8cc#L
8cc#J
8aaL
8bJ
8cc#L
8eeJ
=
8cc#L
8ddJ
8ddL
8ff#J
8ff#L
8aaJ
8ff#L
8ddJ
=
8eeL
8aaJ
8aaL
8eeJ
8ff#L
8aaJ
8eeL
8cc#J
!!linebreak:original
=
8bL
8eeJ
8eeL
8g#J
4a
4ryy
=||
4ee
2.ryy
=
8bL
8cc#J
8cc#L
8cc#J
8eeL
8aJ
8aL
8aJ
=
8ddL
8aJ
8eeL
8aJ
8ff#L
8aaJ
8ff#L
8ddJ
=
8eeL
8cc#J
8cc#L
8cc#J
8aaL
8bJ
8cc#L
8eeJ
=
8ff#L
8eeJ
8aaL
8cc#J
4b
4aa
!!linebreak:original
=
8bL
8cc#J
8cc#L
8cc#J
8eeL
8aJ
8aL
8aJ
=
8ddL
8aJ
8eeL
8aJ
8ff#L
8aaJ
8ff#L
8ddJ
=
8eeL
8aaJ
8aaL
8eeJ
8ff#L
8aaJ
8eeL
8cc#J
=
8bL
8eeJ
8eeL
8g#J
4a
4ryy
=||
8eeL
8ddJ
2.ryy
!!linebreak:original
=
8cc#L
8aaJ
8aaL
8eeJ
8aaL
8eeJ
8cc#L
8aJ
=
8ddL
8aaJ
8aaL
8ff#J
8aaL
8ff#J
8ddL
8bJ
=
8eeL
8aaJ
8aaL
8eeJ
8ff#L
8aaJ
8cc#L
8eeJ
=
8ff#L
8eeJ
8aaL
8cc#J
4b
4aa
=
8bL
8cc#J
8cc#L
8cc#J
8eeL
8aJ
8aL
8aJ
!!linebreak:original
=
8ddL
8aJ
8eeL
8aJ
8ff#L
8aaJ
8ff#L
8ddJ
=
8eeL
8aaJ
8aaL
8eeJ
8ff#L
8aaJ
8eeL
8cc#J
=
8bL
8eeJ
8eeL
8g#J
4a
4ryy
=||
*-
